local/share/icons/dracula-icons-main/24/places/folder-html.svg

<?xml version="1.0" encoding="UTF-8"?>
<svg xmlns="http://www.w3.org/2000/svg" xmlns:xlink="http://www.w3.org/1999/xlink" width="24" height="24" viewBox="0 0 24 24">
<path fill-rule="nonzero" fill="rgb(100%, 100%, 100%)" fill-opacity="1" d="M 12 5 C 8.132812 5 5 8.132812 5 12 C 5 15.867188 8.132812 19 12 19 C 15.867188 19 19 15.867188 19 12 C 19 8.132812 15.867188 5 12 5 Z M 12 7 C 14.761719 7 17 9.238281 17 12 C 17 14.761719 14.761719 17 12 17 C 9.238281 17 7 14.761719 7 12 C 7 9.238281 9.238281 7 12 7 Z M 11.625 8.003906 C 11.492188 8.015625 11.359375 8.023438 11.230469 8.050781 C 10.972656 8.101562 10.730469 8.171875 10.492188 8.273438 C 9.363281 8.75 8.511719 9.742188 8.207031 10.953125 C 8.214844 10.960938 8.222656 10.964844 8.230469 10.976562 C 8.445312 11.199219 9 11.515625 9.410156 11.664062 C 9.636719 11.746094 10.070312 11.871094 10.367188 11.933594 C 10.667969 11.996094 10.867188 12.054688 10.835938 12.058594 C 10.804688 12.058594 10.671875 12.160156 10.539062 12.277344 C 10.289062 12.503906 10.160156 12.707031 10.050781 13.066406 C 9.992188 13.261719 9.996094 13.328125 10.074219 13.433594 C 10.121094 13.496094 10.332031 13.648438 10.539062 13.777344 C 10.75 13.90625 10.996094 14.085938 11.082031 14.171875 C 11.40625 14.484375 11.621094 15.046875 11.621094 15.597656 C 11.621094 15.734375 11.636719 15.808594 11.644531 15.84375 C 11.671875 15.84375 11.695312 15.839844 11.71875 15.84375 C 11.78125 15.820312 11.871094 15.789062 12.015625 15.71875 C 13.21875 15.117188 13.765625 14.339844 13.710938 13.3125 C 13.667969 12.488281 13.28125 12.191406 11.722656 11.859375 C 10.570312 11.617188 9.953125 11.199219 9.953125 10.679688 C 9.953125 10.542969 10 10.460938 10.148438 10.3125 C 10.308594 10.152344 10.34375 10.140625 10.46875 10.164062 C 10.546875 10.179688 10.753906 10.285156 10.910156 10.410156 C 11.265625 10.691406 11.4375 10.804688 11.625 10.804688 C 11.703125 10.804688 11.769531 10.792969 11.769531 10.78125 C 11.769531 10.769531 11.710938 10.675781 11.648438 10.582031 C 11.292969 10.058594 11.316406 9.082031 11.699219 8.25 C 11.757812 8.117188 11.800781 8.027344 11.796875 8.003906 C 11.742188 8.003906 11.675781 7.996094 11.625 8.003906 Z M 15.308594 9.847656 C 15.238281 9.800781 14.65625 10.410156 14.523438 10.679688 C 14.257812 11.210938 14.359375 11.5625 14.988281 12.230469 C 15.210938 12.460938 15.472656 12.773438 15.554688 12.917969 C 15.636719 13.0625 15.707031 13.183594 15.726562 13.164062 C 15.746094 13.140625 15.804688 12.976562 15.847656 12.796875 C 15.96875 12.324219 15.976562 11.5 15.847656 11.027344 C 15.75 10.65625 15.402344 9.902344 15.308594 9.847656 Z M 15.308594 9.847656 "/>
</svg>

<svg width="24" height="24" version="1.1" viewBox="0 0 24 24" xmlns="http://www.w3.org/2000/svg">
 <defs>
  <style id="current-color-scheme" type="text/css">.ColorScheme-Text { color:#FFFFFF; } .ColorScheme-Highlight { color:#5294e2; }</style>
 </defs>
 <path d="m12 5a7 7 0 0 0-7 7 7 7 0 0 0 7 7 7 7 0 0 0 7-7 7 7 0 0 0-7-7zm0 2a5 5 0 0 1 5 5 5 5 0 0 1-5 5 5 5 0 0 1-5-5 5 5 0 0 1 5-5zm-0.37695 1.002c-0.13229 0.01345-0.26446 0.02264-0.39258 0.04883-0.25722 0.05261-0.5019 0.12072-0.73828 0.2207-1.1297 0.4777-1.9815 1.4701-2.2852 2.6797 0.00779 0.0085 0.016421 0.01384 0.025391 0.02344 0.2119 0.22636 0.76793 0.54046 1.1797 0.68945 0.22518 0.08149 0.65931 0.2085 0.95703 0.26953 0.29774 0.06091 0.49613 0.12065 0.4668 0.12305s-0.16254 0.10168-0.29492 0.2207c-0.25251 0.22701-0.38111 0.42782-0.49023 0.78711-0.059878 0.19673-0.054498 0.26265 0.02344 0.36914 0.04703 0.06417 0.25763 0.21427 0.4668 0.34375s0.45378 0.30802 0.54102 0.39258c0.32499 0.315 0.54102 0.8786 0.54102 1.4258 0 0.14002 0.01321 0.21424 0.02344 0.24609 0.02658 0.0024 0.04756-0.0024 0.07422 0 0.06016-0.0232 0.15153-0.05125 0.29492-0.12305 1.2014-0.6014 1.7494-1.378 1.6953-2.4082-0.0431-0.82155-0.42784-1.12-1.9902-1.4512-1.1505-0.24383-1.7695-0.65834-1.7695-1.1797 0-0.13749 0.047066-0.21701 0.19727-0.36719 0.16143-0.16145 0.19357-0.17337 0.31836-0.14844 0.07946 0.01589 0.28558 0.12115 0.44336 0.24609 0.35518 0.28124 0.5292 0.39258 0.71289 0.39258 0.07825 0 0.14648-0.01172 0.14648-0.02344s-0.05888-0.10254-0.12305-0.19727c-0.35462-0.5225-0.33131-1.4993 0.05078-2.334 0.06-0.13104 0.10395-0.22092 0.09766-0.24609-0.05308 0.0031-0.11926-0.0055-0.17188 0zm3.6855 1.8438c-0.07148-0.04412-0.65157 0.56542-0.78516 0.83398-0.2649 0.5326-0.16559 0.88153 0.4668 1.5488 0.21909 0.23117 0.48191 0.54322 0.56445 0.68945 0.08253 0.14625 0.15254 0.26506 0.17187 0.24414 0.01934-0.02092 0.07768-0.18754 0.12305-0.36719 0.11923-0.4721 0.12853-1.2944 0-1.7695-0.09956-0.36801-0.44864-1.1226-0.54102-1.1797z" class="ColorScheme-Text" fill="currentColor"/>
</svg>
